public/logos/PY.svg

<?xml version="1.0" encoding="UTF-8"?>
<svg xmlns="http://www.w3.org/2000/svg" xmlns:xlink="http://www.w3.org/1999/xlink" width="176pt" height="38.14pt" viewBox="0 0 176 38.14" version="1.1">
<defs>
<clipPath id="clip1">
  <path d="M 0 0 L 67 0 L 67 38.140625 L 0 38.140625 Z M 0 0 "/>
</clipPath>
</defs>
<g id="surface1">
<g clip-path="url(#clip1)" clip-rule="nonzero">
<path style=" stroke:none;fill-rule:nonzero;fill:rgb(93.023682%,11.683655%,22.924805%);fill-opacity:1;" d="M 11.476562 38.140625 C 23.964844 33.855469 34.621094 27.496094 35.675781 26.59375 C 30.488281 28.15625 28.324219 26.160156 28.324219 26.160156 C 29.792969 25.792969 33.910156 25.050781 34.867188 22.628906 C 35.601562 19.839844 32.886719 18.738281 31.195312 17.34375 C 21.066406 10.957031 10.496094 5.671875 0 0.167969 C 15.5625 1.414062 29.800781 9.535156 45.730469 6.011719 L 42.28125 9.417969 C 41.398438 10.664062 40.296875 12.5 41.472656 13.964844 L 42.28125 14.699219 C 42.28125 14.699219 45.074219 16.039062 47.859375 13.675781 C 50.644531 11.308594 58.820312 -3.476562 66.0625 0.753906 C 53.949219 6.433594 53.617188 13.539062 46.414062 21.210938 C 40.15625 28.324219 29.25 34.476562 11.476562 38.140625 "/>
</g>
<path style=" stroke:none;fill-rule:nonzero;fill:rgb(93.023682%,11.683655%,22.924805%);fill-opacity:1;" d="M 169.824219 26.164062 C 169.5 25.347656 169.582031 24.605469 170.117188 24.550781 C 171.9375 24.648438 171.152344 26.917969 172.714844 26.933594 C 174.085938 26.917969 174.539062 26.507812 174.597656 25.652344 C 174.703125 22.789062 170.574219 23.902344 170.632812 20.691406 C 170.65625 17.75 175.363281 18.289062 175.355469 20.363281 C 175.429688 20.730469 175.121094 21.203125 174.679688 21.128906 C 174.289062 21.054688 172.320312 18.898438 172.175781 21.101562 C 173.203125 22.714844 175.363281 22.25 175.917969 24.332031 C 176.285156 26.09375 175.402344 27.78125 173.789062 28.292969 C 171.953125 28.734375 170.339844 27.632812 169.824219 26.164062 "/>
<path style=" stroke:none;fill-rule:nonzero;fill:rgb(93.023682%,11.683655%,22.924805%);fill-opacity:1;" d="M 99.765625 25.433594 C 99.761719 25.039062 98.964844 24.570312 98.921875 24.566406 L 96.351562 24.5625 C 95.878906 24.425781 95.308594 24.199219 95.320312 23.824219 C 95.320312 23.367188 95.535156 23.078125 96.238281 23.066406 C 97.042969 23.015625 99.085938 23.074219 99.085938 23.074219 C 99.746094 22.996094 99.832031 22.789062 99.839844 22.386719 C 99.832031 20.726562 98.878906 19.566406 97.21875 19.558594 C 95.578125 19.609375 94.628906 20.1875 94.59375 22.011719 C 94.460938 24.070312 94.585938 24.976562 94.589844 27.15625 C 94.585938 28.199219 92.632812 28.199219 92.839844 27.109375 L 92.832031 22.296875 C 92.644531 19.691406 94.804688 17.96875 97.007812 17.960938 C 99.210938 17.957031 101.316406 18.992188 101.324219 22.019531 L 101.324219 27.28125 C 101.316406 28.324219 99.746094 28.242188 99.761719 27.460938 C 99.753906 26.824219 99.769531 25.980469 99.765625 25.433594 "/>
<path style=" stroke:none;fill-rule:nonzero;fill:rgb(93.023682%,11.683655%,22.924805%);fill-opacity:1;" d="M 80.101562 18.753906 C 80.089844 17.625 81.660156 17.503906 81.675781 18.746094 L 81.667969 27.378906 C 81.660156 28.324219 80.089844 28.363281 80.105469 27.363281 L 80.101562 18.753906 "/>
<path style=" stroke:none;fill-rule:nonzero;fill:rgb(93.023682%,11.683655%,22.924805%);fill-opacity:1;" d="M 77.515625 27.691406 L 73.066406 23.808594 C 72.53125 23.242188 73.109375 22.789062 73.613281 22.824219 C 73.613281 22.824219 75.148438 23.007812 76.0625 22.730469 C 76.671875 22.542969 77.113281 21.9375 77.210938 21.183594 C 77.210938 20.375 76.785156 19.816406 75.925781 19.554688 C 74.023438 19.570312 72.085938 19.140625 72.210938 20.738281 L 72.1875 27.15625 C 72.148438 28.15625 70.476562 27.992188 70.5625 27.199219 L 70.554688 19.28125 C 70.550781 18.050781 71.761719 18.070312 71.761719 18.070312 L 75.585938 18.054688 C 77.035156 18.039062 78.898438 18.933594 78.910156 20.917969 C 78.890625 22.664062 78.027344 23.820312 76.363281 24.125 C 77.199219 24.894531 79.304688 26.628906 78.738281 27.320312 C 78.652344 27.589844 78.097656 27.992188 77.515625 27.691406 "/>
<path style=" stroke:none;fill-rule:nonzero;fill:rgb(93.023682%,11.683655%,22.924805%);fill-opacity:1;" d="M 60.925781 25.023438 C 60.472656 21.550781 60.660156 18.875 60.660156 18.875 C 60.679688 17.832031 61.527344 18.003906 62.1875 18.152344 C 62.910156 19.816406 61.464844 25.265625 64.59375 26.289062 C 65.347656 26.464844 66.996094 25.929688 67.320312 24.757812 C 67.90625 22.703125 67.371094 20.558594 67.667969 18.355469 C 67.785156 17.75 69.234375 17.28125 69.210938 19.300781 C 69.3125 21.136719 69.558594 24.9375 68.292969 26.371094 C 66.457031 28.574219 62.042969 28.324219 60.925781 25.023438 "/>
<path style=" stroke:none;fill-rule:nonzero;fill:rgb(93.023682%,11.683655%,22.924805%);fill-opacity:1;" d="M 54.050781 24.453125 C 54.855469 21.882812 55.089844 19.097656 57.804688 18.070312 C 58.613281 18.140625 59.566406 17.847656 60.15625 18.363281 C 60.519531 20.125 58.171875 18.804688 57.511719 19.902344 C 55.515625 20.640625 56.757812 28.15625 50.851562 27.777344 C 48 26.257812 53.78125 27.332031 54.050781 24.453125 "/>
<path style=" stroke:none;fill-rule:nonzero;fill:rgb(93.023682%,11.683655%,22.924805%);fill-opacity:1;" d="M 91.332031 20.789062 C 91.78125 24.261719 91.597656 26.9375 91.597656 26.9375 C 91.578125 27.980469 90.726562 27.808594 90.070312 27.660156 C 89.34375 25.996094 90.789062 20.546875 87.660156 19.523438 C 86.910156 19.34375 85.257812 19.882812 84.933594 21.054688 C 84.347656 23.109375 84.886719 25.253906 84.585938 27.453125 C 84.472656 28.0625 83.023438 28.527344 83.042969 26.507812 C 82.945312 24.675781 82.695312 20.875 83.960938 19.441406 C 85.796875 17.238281 90.214844 17.488281 91.332031 20.789062 "/>
<path style=" stroke:none;fill-rule:nonzero;fill:rgb(93.023682%,11.683655%,22.924805%);fill-opacity:1;" d="M 112.757812 26.960938 C 112.757812 28.074219 110.816406 28.40625 110.816406 26.917969 L 110.816406 20.765625 C 110.816406 19.734375 108.628906 19.566406 108.628906 20.808594 L 108.628906 26.960938 C 108.628906 28.40625 106.6875 28.199219 106.6875 26.878906 L 106.6875 20.929688 C 106.6875 19.652344 104.496094 19.566406 104.496094 20.929688 L 104.496094 26.878906 C 104.496094 28.074219 102.554688 28.488281 102.554688 26.917969 L 102.554688 20.394531 C 102.554688 18.207031 106.519531 17.378906 107.59375 18.90625 C 108.667969 17.296875 112.757812 18.039062 112.757812 20.433594 L 112.757812 26.960938 "/>
<path style=" stroke:none;fill-rule:nonzero;fill:rgb(93.023682%,11.683655%,22.924805%);fill-opacity:1;" d="M 140.714844 19.445312 C 140.714844 18.328125 142.65625 18 142.65625 19.484375 L 142.65625 25.640625 C 142.65625 26.671875 144.847656 26.835938 144.847656 25.597656 L 144.847656 19.445312 C 144.847656 18 146.785156 18.207031 146.785156 19.527344 L 146.785156 25.472656 C 146.785156 26.753906 148.976562 26.835938 148.976562 25.472656 L 148.976562 19.527344 C 148.976562 18.328125 150.914062 17.917969 150.914062 19.484375 L 150.914062 26.011719 C 150.914062 28.199219 146.949219 29.023438 145.878906 27.496094 C 144.804688 29.109375 140.714844 28.363281 140.714844 25.96875 L 140.714844 19.445312 "/>
<path style=" stroke:none;fill-rule:nonzero;fill:rgb(93.023682%,11.683655%,22.924805%);fill-opacity:1;" d="M 138.363281 28.144531 L 133.910156 24.261719 C 133.378906 23.699219 133.957031 23.246094 134.464844 23.277344 C 134.464844 23.277344 135.992188 23.460938 136.910156 23.183594 C 137.519531 23 137.964844 22.390625 138.058594 21.636719 C 138.058594 20.832031 137.632812 20.269531 136.773438 20.007812 C 134.871094 20.023438 132.933594 19.59375 133.058594 21.191406 L 133.035156 27.609375 C 132.996094 28.613281 131.324219 28.445312 131.410156 27.652344 L 131.402344 19.734375 C 131.398438 18.503906 132.609375 18.523438 132.609375 18.523438 L 136.433594 18.507812 C 137.882812 18.496094 139.746094 19.386719 139.757812 21.371094 C 139.738281 23.121094 138.871094 24.277344 137.210938 24.578125 C 138.046875 25.351562 140.152344 27.085938 139.585938 27.777344 C 139.5 28.046875 138.945312 28.449219 138.363281 28.144531 "/>
<path style=" stroke:none;fill-rule:nonzero;fill:rgb(93.023682%,11.683655%,22.924805%);fill-opacity:1;" d="M 125.269531 25.617188 C 125.265625 25.226562 124.46875 24.757812 124.425781 24.75 L 121.855469 24.746094 C 121.378906 24.613281 120.8125 24.386719 120.820312 24.011719 C 120.824219 23.554688 121.039062 23.265625 121.742188 23.253906 C 122.546875 23.203125 124.589844 23.257812 124.589844 23.257812 C 125.25 23.183594 125.332031 22.976562 125.34375 22.570312 C 125.332031 20.910156 124.382812 19.753906 122.722656 19.746094 C 121.078125 19.796875 120.128906 20.375 120.097656 22.195312 C 120.097656 22.195312 120.089844 25.246094 120.09375 27.425781 C 120.089844 28.46875 118.136719 28.46875 118.34375 27.378906 L 118.335938 22.484375 C 118.148438 19.878906 120.308594 18.15625 122.511719 18.148438 C 124.714844 18.144531 126.820312 19.175781 126.828125 22.207031 L 126.828125 27.550781 C 126.820312 28.589844 125.25 28.507812 125.261719 27.730469 C 125.257812 27.09375 125.269531 26.164062 125.269531 25.617188 "/>
<path style=" stroke:none;fill-rule:nonzero;fill:rgb(93.023682%,11.683655%,22.924805%);fill-opacity:1;" d="M 158.96875 25.988281 C 158.964844 25.597656 158.164062 25.128906 158.125 25.121094 L 155.554688 25.121094 C 155.078125 24.984375 154.511719 24.757812 154.523438 24.382812 C 154.523438 23.925781 154.738281 23.636719 155.441406 23.625 C 156.246094 23.574219 158.289062 23.628906 158.289062 23.628906 C 158.949219 23.554688 159.03125 23.347656 159.039062 22.941406 C 159.03125 21.28125 158.082031 20.125 156.421875 20.117188 C 154.777344 20.167969 153.828125 20.746094 153.796875 22.566406 C 153.664062 24.625 153.789062 25.246094 153.792969 27.425781 C 153.789062 28.46875 151.835938 28.46875 152.042969 27.378906 L 152.035156 22.855469 C 151.847656 20.25 154.007812 18.527344 156.210938 18.519531 C 158.414062 18.515625 160.519531 19.546875 160.527344 22.578125 L 160.527344 27.546875 C 160.519531 28.59375 158.949219 28.507812 158.960938 27.726562 C 158.957031 27.09375 158.96875 26.535156 158.96875 25.988281 "/>
<path style=" stroke:none;fill-rule:nonzero;fill:rgb(93.023682%,11.683655%,22.924805%);fill-opacity:1;" d="M 128.269531 19.125 C 128.257812 18 129.824219 17.875 129.839844 19.117188 L 129.832031 27.75 C 129.824219 28.695312 128.257812 28.734375 128.273438 27.734375 L 128.269531 19.125 "/>
<path style=" stroke:none;fill-rule:nonzero;fill:rgb(93.023682%,11.683655%,22.924805%);fill-opacity:1;" d="M 166.445312 27.496094 C 166.445312 28.363281 164.835938 28.449219 164.835938 27.457031 L 164.835938 25.019531 C 164.835938 24.398438 164.050781 24.730469 162.851562 23.738281 C 161.652344 22.746094 161.363281 20.601562 161.363281 19.527344 C 161.363281 18.453125 162.933594 18.410156 162.933594 19.609375 C 162.933594 20.808594 163.347656 23.121094 165.453125 23.121094 C 167.558594 23.121094 168.34375 21.589844 168.304688 19.855469 C 168.269531 18.496094 169.832031 18.699219 169.871094 19.898438 C 169.914062 21.097656 169.914062 22.417969 168.21875 23.738281 C 166.859375 24.800781 166.445312 24.359375 166.445312 25.019531 L 166.445312 27.496094 "/>
</g>
</svg>

<svg xmlns="http://www.w3.org/2000/svg" width="176pt" height="50.853" viewBox="0 0 176 38.14"><defs><clipPath id="a"><path d="M0 0h67v38.14H0Zm0 0"/></clipPath></defs><g clip-path="url(#a)"><path d="M11.477 38.14c12.488-4.285 23.144-10.644 24.199-11.546-5.188 1.562-7.352-.434-7.352-.434 1.469-.367 5.586-1.11 6.543-3.531.735-2.79-1.98-3.89-3.672-5.285C21.066 10.957 10.496 5.672 0 .168c15.563 1.246 29.8 9.367 45.73 5.844l-3.449 3.406c-.883 1.246-1.984 3.082-.808 4.547l.808.734s2.793 1.34 5.578-1.023C50.645 11.309 58.82-3.477 66.063.754 53.948 6.434 53.617 13.539 46.414 21.21c-6.258 7.113-17.164 13.266-34.937 16.93" style="stroke:none;fill-rule:nonzero;fill:#ed1e3a;fill-opacity:1"/></g><path d="M169.824 26.164c-.324-.816-.242-1.559.293-1.613 1.82.097 1.035 2.367 2.598 2.383 1.37-.016 1.824-.426 1.883-1.282.105-2.863-4.024-1.75-3.965-4.96.023-2.942 4.73-2.403 4.722-.329.075.367-.234.84-.675.766-.39-.074-2.36-2.23-2.504-.027 1.027 1.613 3.187 1.148 3.742 3.23.367 1.762-.516 3.45-2.129 3.961a3.354 3.354 0 0 1-3.965-2.129M99.766 25.434c-.004-.395-.801-.864-.844-.868l-2.57-.003c-.473-.137-1.043-.364-1.032-.739 0-.457.215-.746.918-.758.805-.05 2.848.008 2.848.008.66-.078.746-.285.754-.687-.008-1.66-.961-2.82-2.621-2.828-1.64.05-2.59.628-2.625 2.453-.133 2.058-.008 2.965-.004 5.144-.004 1.043-1.957 1.043-1.75-.047l-.008-4.812c-.187-2.606 1.973-4.328 4.176-4.336 2.203-.004 4.308 1.031 4.316 4.059v5.261c-.008 1.043-1.578.961-1.562.18-.008-.637.008-1.48.004-2.027M80.102 18.754c-.012-1.129 1.558-1.25 1.574-.008l-.008 8.633c-.008.945-1.578.984-1.563-.016zM77.516 27.691l-4.45-3.882c-.535-.567.043-1.02.547-.985 0 0 1.535.184 2.45-.094.609-.187 1.05-.793 1.148-1.546 0-.809-.426-1.368-1.285-1.63-1.903.016-3.84-.413-3.715 1.184l-.023 6.418c-.04 1-1.711.836-1.626.043l-.007-7.918c-.004-1.23 1.207-1.21 1.207-1.21l3.824-.016c1.45-.016 3.312.879 3.324 2.863-.02 1.746-.883 2.902-2.547 3.207.836.77 2.942 2.504 2.375 3.195-.086.27-.64.672-1.222.371M60.926 25.023c-.453-3.472-.266-6.148-.266-6.148.02-1.043.867-.871 1.528-.723.722 1.664-.723 7.114 2.406 8.137.754.176 2.402-.36 2.726-1.531.586-2.055.051-4.2.348-6.403.117-.605 1.566-1.074 1.543.946.102 1.836.348 5.637-.918 7.07-1.836 2.203-6.25 1.953-7.367-1.348M54.05 24.453c.805-2.57 1.04-5.355 3.755-6.383.808.07 1.761-.222 2.351.293.364 1.762-1.984.442-2.644 1.54-1.996.738-.754 8.253-6.66 7.874-2.852-1.52 2.93-.445 3.199-3.324M91.332 20.79c.45 3.472.266 6.148.266 6.148-.02 1.042-.871.87-1.528.722-.726-1.664.72-7.113-2.41-8.137-.75-.18-2.402.36-2.726 1.532-.586 2.054-.047 4.199-.348 6.398-.113.61-1.563 1.074-1.543-.945-.098-1.832-.348-5.633.918-7.067 1.836-2.203 6.254-1.953 7.371 1.348M112.758 26.96c0 1.114-1.942 1.446-1.942-.042v-6.152c0-1.032-2.187-1.2-2.187.043v6.152c0 1.445-1.942 1.238-1.942-.082v-5.95c0-1.277-2.19-1.363-2.19 0v5.95c0 1.195-1.942 1.61-1.942.039v-6.523c0-2.188 3.965-3.016 5.039-1.489 1.074-1.61 5.164-.867 5.164 1.528zM140.715 19.445c0-1.117 1.941-1.445 1.941.04v6.156c0 1.03 2.192 1.195 2.192-.043v-6.153c0-1.445 1.937-1.238 1.937.082v5.946c0 1.28 2.192 1.363 2.192 0v-5.946c0-1.199 1.937-1.609 1.937-.043v6.528c0 2.187-3.965 3.011-5.035 1.484-1.074 1.613-5.164.867-5.164-1.527zM138.363 28.145l-4.453-3.883c-.531-.563.047-1.016.555-.985 0 0 1.527.184 2.445-.093.61-.184 1.055-.793 1.149-1.547 0-.805-.426-1.367-1.286-1.63-1.902.016-3.84-.413-3.714 1.184l-.024 6.418c-.039 1.004-1.71.836-1.625.043l-.008-7.918c-.004-1.23 1.207-1.21 1.207-1.21l3.825-.016c1.449-.012 3.312.879 3.324 2.863-.02 1.75-.887 2.906-2.547 3.207.836.774 2.941 2.508 2.375 3.2-.086.269-.64.671-1.223.367M125.27 25.617c-.004-.39-.801-.86-.844-.867l-2.57-.004c-.477-.133-1.043-.36-1.036-.734.004-.457.22-.746.922-.758.805-.05 2.848.004 2.848.004.66-.074.742-.281.754-.688-.012-1.66-.961-2.816-2.621-2.824-1.645.05-2.594.629-2.625 2.45 0 0-.008 3.05-.004 5.23-.004 1.043-1.957 1.043-1.75-.047l-.008-4.895c-.188-2.605 1.973-4.328 4.176-4.336 2.203-.003 4.308 1.028 4.316 4.059v5.344c-.008 1.039-1.578.957-1.566.18-.004-.637.008-1.567.008-2.114M158.969 25.988c-.004-.39-.805-.86-.844-.867h-2.57c-.477-.137-1.043-.363-1.032-.738 0-.457.215-.746.918-.758.805-.05 2.848.004 2.848.004.66-.074.742-.281.75-.688-.008-1.66-.957-2.816-2.617-2.824-1.645.051-2.594.63-2.625 2.45-.133 2.058-.008 2.68-.004 4.859-.004 1.043-1.957 1.043-1.75-.047l-.008-4.524c-.187-2.605 1.973-4.328 4.176-4.335 2.203-.004 4.309 1.027 4.316 4.058v4.969c-.007 1.047-1.578.96-1.566.18-.004-.633.008-1.192.008-1.739M128.27 19.125c-.012-1.125 1.554-1.25 1.57-.008l-.008 8.633c-.008.945-1.574.984-1.559-.016zM166.445 27.496c0 .867-1.61.953-1.61-.039V25.02c0-.622-.784-.29-1.983-1.282s-1.489-3.136-1.489-4.21c0-1.075 1.57-1.118 1.57.081s.415 3.512 2.52 3.512 2.89-1.531 2.852-3.266c-.035-1.359 1.527-1.156 1.566.043.043 1.2.043 2.52-1.652 3.84-1.36 1.063-1.774.621-1.774 1.282z" style="stroke:none;fill-rule:nonzero;fill:#ed1e3a;fill-opacity:1"/></svg>
